svgs/light/arrow-down-1-9.svg

<svg xmlns="http://www.w3.org/2000/svg" viewBox="0 0 512 512"><!-- Font Awesome Pro 6.0.0-alpha2 by @fontawesome - https://fontawesome.com License - https://fontawesome.com/license (Commercial License) --><path d="M336 224H432C440.844 224 448 216.844 448 208S440.844 192 432 192H400V48C400 39.156 392.844 32 384 32H352C343.156 32 336 39.156 336 48S343.156 64 352 64H368V192H336C327.156 192 320 199.156 320 208S327.156 224 336 224ZM384 256C339.875 256 304 291.875 304 336S339.875 416 384 416C400.734 416 416.254 410.801 429.107 401.988C421.275 428.484 396.994 448 368 448C359.156 448 352 455.156 352 464S359.156 480 368 480C420.937 480 464 436.938 464 384V336C464 291.875 428.125 256 384 256ZM384 384C357.531 384 336 362.469 336 336S357.531 288 384 288S432 309.531 432 336S410.469 384 384 384ZM224 352C219.906 352 215.812 353.562 212.687 356.688L144 425.375V48C144 39.156 136.844 32 128 32S112 39.156 112 48V425.375L43.312 356.688C37.062 350.438 26.937 350.438 20.687 356.688S14.437 373.063 20.687 379.312L116.687 475.312C122.937 481.562 133.063 481.562 139.312 475.312L235.312 379.312C241.562 373.062 241.562 362.937 235.312 356.688C232.187 353.562 228.094 352 224 352Z"/></svg>

<svg xmlns="http://www.w3.org/2000/svg" viewBox="0 0 512 512"><!--! Font Awesome Pro 6.0.0-alpha3 by @fontawesome - https://fontawesome.com License - https://fontawesome.com/license (Commercial License) --><path d="M336 224l96-.0039c8.844 0 16-7.152 16-15.1S440.8 192 432 192h-32V48C400 39.16 392.8 32 384 32h-32c-8.844 0-16 7.156-16 16S343.2 64 352 64h16v128h-32C327.2 192 320 199.2 320 208S327.2 224 336 224zM384 256c-44.13 0-80 35.88-80 80S339.9 416 384 416c16.73 0 32.25-5.199 45.11-14.01C421.3 428.5 396.1 448 368 448c-8.844 0-16 7.156-16 16s7.156 16 16 16c52.94 0 96-43.06 96-96v-48C464 291.9 428.1 256 384 256zM384 384c-26.47 0-48-21.53-48-48S357.5 288 384 288s48 21.53 48 48S410.5 384 384 384zM224 352c-4.094 0-8.188 1.562-11.31 4.688L144 425.4V48C144 39.16 136.8 32 128 32S112 39.16 112 48v377.4l-68.69-68.69c-6.25-6.25-16.38-6.25-22.62 0s-6.25 16.38 0 22.62l96 96c6.25 6.25 16.38 6.25 22.62 0l96-96c6.25-6.25 6.25-16.38 0-22.62C232.2 353.6 228.1 352 224 352z"/></svg>
